X: 3211
T: The BOATIE ROWS
Q: "Highland Schottische."
R: Schottische.
%R: shottish
B: James Kerr "Merry Melodies" v.3 p.24 #211
Z: 2016 John Chambers <jc:trillian.mit.edu>
M: C
L: 1/16
K: A
uA2 |\
ce3 e3f e3a bagf | ec3 c3A B4- B2A2 |\
ce3 e3f e3a bagf | ec3 B3c A6 ::\
e2 |\
ae3 e3f ae3 e3a | f3e fa3 b6 e2 |\
.ac'3 .fa3 ea3 e3c | B3A Bc3 A6 :|

%%sep 1 1 500
%%sep 1 1 500

